X:61
T:Fly Me To The Moon
C:Jethro Burns from Swing Low Sweet Mandolin
N:TablEdited by Fred Keller
L:1/8
Q:1/4=150
M:4/4
K:C
z8 | [c^F][cF] [cF][cF] [cF][cF] z[cD] | z[cD] z[c^D] z[cD] z[cE] | z2 z2 [c2D2] G,2 | 
[c2^D2] G,2 [e4c4E4] | [c2E2] [B2G2] A[G^C] z[FD] | zD DF A{B}c z2 | [BFB,]B, AB, GB, F2 | 
[E2C2] [EC]B, CE Gc | A^C GD F=C EC | DA, EA, F[ADA,] z[^G/B,/]G/ | ^G/G/G/G/ G/G/F ED z{A,}C | 
z2 z2 z^C zC | DA zF D^C =CB, | z[AFB,] zA cG BG/G/ | G/G/G/G/ G/G/F E^D =DC | 
(3^CEG (3_B^ce (3g_be aB, | CE Fe f3A, | [FB,]B, G,[AC] z[GB,] z[FG,] | z[EC] [E/C/]E/E/E/ E/E/E/E3/2E | 
FE ^DE e^d =d^c | cE B_B A^G =G^F | (3FE^D (3=D^C=C (3B,C^C (3DEF | {_B}=BA zB, G^F =FG, | 
E/F/^F/G/ A/G/F/G/ A/B/c/d/ e/f/g/4a/4g/ | fe dc AF ED | (3B,DF (3^GBd (3ef^g be | 
e'2 E2 ^G/B/d2^d/e/ | c/A/E/C/ A,A, z^C EC | D/^C/D/E/ F/E/F/^G/ A/G/A/d/ f/g/a | 
d'a c'b ag ^ff | ag ^fg =fd f^c | e^d ea z2 zB, | Cz zB cz zb | c'C z^D =DC A,G, | 
C^D EG Ac d^d | (3efe ^de fe de | c/B/c/B/ A/^G/A/B/ c/B/c/B/ A/G/A/=G/ | F/E/F/E/ D/^C/D/E/ F/E/F/G/ A/^G/A/c/ | 
BA G^F =FA GF | ED CB, CD EG | A/^G/A/=G/ F/E/D/^C/ D/E/F/G/ A/c/d/e/ | f/g/a/f/ g/f/e/g/ f/e/d/f/ e/d/c/A/ | 
d/c/B/A/ ^G/A/B/G/ A/B/c/d/ e/^g/a | c'a ec BA ^GA | (3D^CD (3A^GA (3cBc (3fef | 
(3a^ga {b}c'4 z2 | zb ge (3a^g=g (3e^d=d | (3^ceg (3_ba^g a2 zC | D/C/B,/C/ G/F/E/F/ _B/A/^G/A/ e/d/^c/d/ | 
f/e/^d/e/ g/f/e/f/ a/g/^f/g/ b/a/^g/c'/ | c'/b/_b/d'/ d'/c'/=b/e'/ e'/d'/^c'/f'/ f'/e'/e'/g'/ | 
g'/g'/g'/^g'/ g'/g'/g'/a'/ a'/a'/a'/b'/ b'/b'/b'/c''/ | c''z zB A[G^C] z[FD] | 
zD GF z3A | GF E^D =DE F^D | EG B_B A^G =GE | Fa Eg Df Ce | B,d A,c BA ^GA/B/ | 
z/c/d/z/ f/e/z/^d/ =d/z/c Bc | AE CA, zG, z^C | DF Az cz z[^dGB,] | zc dc BA GF | 
EF ^FG AG FG | {A}_BA ^GA ^de zz | [e^d]e c2 c3g | G,c z^d =dc AG | Bc GE {B,}C2 {B,}C2 | 
{B,}CD EG AB z[cE] | z[BG] z[AD] z[G^C] zG, | [FD]G, [GD]G, [AF][cA] z[BG] | z[AF] zG, [G2B,2] [F2A,2] | 
[E4C4] (3G,A,B, CD | AG, GG, FE z[DB,] | z[EC] z[FD] z[AF] DD | ^GD FD E^D =D^C | 
C[c2E2]A, zB, C^C | D[AAC] z[AAC] z2 z[AAC] | zG, G,{B}c zB ze/e/ | e/e/e/e/ e/e/e/e/ de de | 
{c}^cA zA zA Az | ^d2 c2 cD Dc | zc z^d =dc AG | a2 c2 cD Da | zc z^d =dc Ac | 
c'2 c2 c3{d}^d | zc z^d =dc AG | c4 [c'4d4] | [c'2^d2] z[c'e] z4 | 


